X: 2
T: The Peat-Fire Flame
R: polka
M: 2/4
L: 1/8
K: Dmin
D>E FE|DC A2|AG GF/G/|AG GA|
D>E FE|DC AA/G/|FD EC|D2 D2:|
F>G Af/e/|dc- cA|AG GF/G/|AG GA|
F>G Af/e/|dc A>G|FD EC|D2 D2:|

